src/assets/img/action_and_leasing-list/icon1.svg

<svg width="50" height="50" viewBox="0 0 50 50" fill="none" xmlns="http://www.w3.org/2000/svg">
<path d="M14.8438 31.1758C14.8438 29.7383 13.8406 28.5367 12.5 28.2156V26.5625H10.9375V28.2164C9.59688 28.5375 8.59375 29.7383 8.59375 31.1766C8.59375 32.4922 9.43203 33.6555 10.6797 34.0711L12.2625 34.5992C12.8719 34.8023 13.2805 35.3703 13.2805 36.0125C13.2813 36.8328 12.6133 37.5 11.7922 37.5H11.6453C10.8242 37.5 10.1562 36.8328 10.1562 36.0117V35.1562H8.59375V36.0117C8.59375 37.4492 9.59688 38.6508 10.9375 38.9719V40.625H12.5V38.9711C13.8406 38.65 14.8438 37.4492 14.8438 36.0109C14.8438 34.6953 14.0055 33.532 12.7578 33.1164L11.175 32.5883C10.5648 32.3859 10.1562 31.818 10.1562 31.1758C10.1562 30.3547 10.8242 29.6875 11.6453 29.6875H11.7922C12.6133 29.6875 13.2812 30.3547 13.2812 31.1758V31.25L14.8438 31.1758Z" fill="#333333"/>
<path d="M46.875 27.3438H20.0898C20.0078 27.2461 19.9336 27.1438 19.8484 27.0492L16.4547 23.2781C17.3375 22.9422 17.9688 22.093 17.9688 21.0938C17.9688 20.1492 17.4047 19.3391 16.5984 18.968L17.8602 14.5531C17.932 14.2992 17.9688 14.0375 17.9688 13.7742C17.9688 12.2102 16.6961 10.9375 15.132 10.9375H12.9937C11.8898 10.9375 10.9422 11.5773 10.4734 12.5H8.46094C6.81016 12.5 5.46875 13.8414 5.46875 15.4914C5.46875 16.2898 5.77969 17.0414 6.34531 17.6062L7.51875 18.7797C6.36641 18.9258 5.46875 19.9016 5.46875 21.0938C5.46875 22.093 6.1 22.9422 6.98281 23.2781L3.58906 27.0492C1.77812 29.0602 0.78125 31.6586 0.78125 34.375C0.78125 40.4062 5.6875 45.3125 11.7188 45.3125C13.3977 45.3125 14.9828 44.9211 16.4062 44.2422V46.875C16.4062 48.1672 17.4578 49.2188 18.75 49.2188H46.875C48.1672 49.2188 49.2188 48.1672 49.2188 46.875V36.7188V32.0312V29.6875C49.2188 28.3953 48.1672 27.3438 46.875 27.3438ZM7.03125 15.4914C7.03125 14.7031 7.67188 14.0625 8.46016 14.0625H10.1562V15.625H11.7188V13.7742C11.7188 13.0719 12.2906 12.5 12.993 12.5H15.1313C15.8344 12.5 16.4062 13.0719 16.4062 13.7742C16.4062 13.8922 16.3898 14.0109 16.357 14.1242L15.0359 18.75H9.69844L7.45 16.5016C7.17969 16.2312 7.03125 15.8727 7.03125 15.4914ZM7.8125 20.3125H15.625C16.0555 20.3125 16.4062 20.6633 16.4062 21.0938C16.4062 21.5242 16.0555 21.875 15.625 21.875H7.8125C7.38203 21.875 7.03125 21.5242 7.03125 21.0938C7.03125 20.6633 7.38203 20.3125 7.8125 20.3125ZM2.34375 34.3656C2.34375 32.0453 3.19844 29.8187 4.75078 28.0945L8.94141 23.4375H14.4953L18.6867 28.0945C20.2391 29.8187 21.0938 32.0461 21.0938 34.375C21.0938 39.5445 16.8883 43.75 11.7188 43.75C6.54922 43.75 2.34375 39.5445 2.34375 34.3656ZM47.6562 46.875C47.6562 47.3063 47.3055 47.6562 46.875 47.6562H18.75C18.3195 47.6562 17.9688 47.3063 17.9688 46.875V43.3375C18.5305 42.9445 19.0539 42.5023 19.5312 42.0141V42.9688H30.4688V41.4062H20.0836C21.2031 40.0758 22.0094 38.4766 22.3961 36.7188H47.6562V46.875ZM22.6211 33.5938H47.6562V35.1562H22.6164C22.6352 34.8945 22.6562 34.6328 22.6562 34.3656C22.6562 34.107 22.6391 33.85 22.6211 33.5938ZM22.3945 32.0312C22.1547 30.9328 21.7484 29.8805 21.1867 28.9062H46.875C47.3055 28.9062 47.6562 29.2563 47.6562 29.6875V32.0312H22.3945Z" fill="#333333"/>
<path d="M39.8438 46.0938C40.3961 46.0938 40.9328 45.9398 41.4086 45.6602C41.8695 45.9289 42.3977 46.0938 42.9688 46.0938C44.6922 46.0938 46.0938 44.6922 46.0938 42.9688C46.0938 41.2453 44.6922 39.8438 42.9688 39.8438C42.3977 39.8438 41.8695 40.0086 41.4086 40.2773C40.9328 39.9977 40.3961 39.8438 39.8438 39.8438C38.1203 39.8438 36.7188 41.2453 36.7188 42.9688C36.7188 44.6922 38.1203 46.0938 39.8438 46.0938ZM44.5312 42.9688C44.5312 43.8305 43.8305 44.5312 42.9688 44.5312C42.107 44.5312 41.4062 43.8305 41.4062 42.9688C41.4062 42.107 42.107 41.4062 42.9688 41.4062C43.8305 41.4062 44.5312 42.107 44.5312 42.9688ZM39.8438 41.4062C39.9922 41.4062 40.1234 41.4313 40.2461 41.4656C39.9977 41.9133 39.8438 42.4211 39.8438 42.9688C39.8438 43.5164 39.9977 44.0242 40.2461 44.4719C40.1234 44.5062 39.9922 44.5312 39.8438 44.5312C38.982 44.5312 38.2812 43.8305 38.2812 42.9688C38.2812 42.107 38.982 41.4062 39.8438 41.4062Z" fill="#333333"/>
<path d="M22.6562 44.5312H24.2188V46.0938H22.6562V44.5312Z" fill="#333333"/>
<path d="M28.9062 44.5312H30.4688V46.0938H28.9062V44.5312Z" fill="#333333"/>
<path d="M19.5312 44.5312H21.0938V46.0938H19.5312V44.5312Z" fill="#333333"/>
<path d="M25.7812 44.5312H27.3438V46.0938H25.7812V44.5312Z" fill="#333333"/>
<path d="M42.1875 25.7812C46.0641 25.7812 49.2188 22.6266 49.2188 18.75C49.2188 14.8734 46.0641 11.7188 42.1875 11.7188C38.3109 11.7188 35.1562 14.8734 35.1562 18.75C35.1562 22.6266 38.3109 25.7812 42.1875 25.7812ZM42.1875 13.2812C45.2031 13.2812 47.6562 15.7344 47.6562 18.75C47.6562 21.7656 45.2031 24.2188 42.1875 24.2188C39.1719 24.2188 36.7188 21.7656 36.7188 18.75C36.7188 15.7344 39.1719 13.2812 42.1875 13.2812Z" fill="#333333"/>
<path d="M28.125 14.8438C32.0016 14.8438 35.1562 11.6891 35.1562 7.8125C35.1562 3.93594 32.0016 0.78125 28.125 0.78125C24.2484 0.78125 21.0938 3.93594 21.0938 7.8125C21.0938 11.6891 24.2484 14.8438 28.125 14.8438ZM28.125 2.34375C31.1406 2.34375 33.5938 4.79688 33.5938 7.8125C33.5938 10.8281 31.1406 13.2812 28.125 13.2812C25.1094 13.2812 22.6562 10.8281 22.6562 7.8125C22.6562 4.79688 25.1094 2.34375 28.125 2.34375Z" fill="#333333"/>
<path d="M40.3961 21.6461L42.1875 19.8547L43.9789 21.6461L45.0836 20.5414L43.2922 18.75L45.0836 16.9586L43.9789 15.8539L42.1875 17.6453L40.3961 15.8539L39.2914 16.9586L41.0828 18.75L39.2914 20.5414L40.3961 21.6461Z" fill="#333333"/>
<path d="M31.8023 6.02107L30.6976 4.91638L26.5625 9.05154L25.5523 8.04138L24.4476 9.14607L26.5625 11.2609L31.8023 6.02107Z" fill="#333333"/>
<path d="M28.9062 16.4062H27.3438V19.5312H19.5312V21.0938H28.9062V16.4062Z" fill="#333333"/>
<path d="M19.5312 22.6562H34.375V24.2188H19.5312V22.6562Z" fill="#333333"/>
</svg>

<svg width="50" height="50" fill="none" xmlns="http://www.w3.org/2000/svg"><path d="M14.844 31.176a3.052 3.052 0 00-2.344-2.96v-1.654h-1.563v1.654a3.05 3.05 0 00-2.343 2.96c0 1.316.838 2.48 2.086 2.895l1.582.528a1.487 1.487 0 01-.47 2.901h-.147a1.49 1.49 0 01-1.489-1.488v-.856H8.594v.856a3.052 3.052 0 002.344 2.96v1.653H12.5v-1.654a3.05 3.05 0 002.344-2.96 3.047 3.047 0 00-2.086-2.895l-1.583-.528a1.485 1.485 0 01-1.019-1.412 1.49 1.49 0 011.49-1.488h.146a1.49 1.49 0 011.49 1.488v.074l1.562-.074z" fill="#333"/><path d="M46.875 27.344H20.09c-.082-.098-.156-.2-.242-.295l-3.393-3.77a2.34 2.34 0 001.514-2.185c0-.945-.564-1.755-1.37-2.126l1.261-4.415a2.84 2.84 0 00-2.728-3.616h-2.138a2.83 2.83 0 00-2.52 1.563H8.46a2.994 2.994 0 00-2.992 2.991c0 .799.31 1.55.876 2.115L7.52 18.78a2.339 2.339 0 00-2.05 2.314 2.34 2.34 0 001.514 2.184L3.589 27.05a10.921 10.921 0 00-2.808 7.326c0 6.031 4.907 10.938 10.938 10.938 1.679 0 3.264-.392 4.687-1.07v2.632a2.347 2.347 0 002.344 2.344h28.125a2.347 2.347 0 002.344-2.344V29.688a2.347 2.347 0 00-2.344-2.344zM7.031 15.49c0-.788.64-1.428 1.43-1.428h1.695v1.562h1.563v-1.85c0-.703.572-1.275 1.274-1.275h2.138a1.276 1.276 0 011.226 1.624l-1.321 4.626H9.698L7.45 16.502a1.42 1.42 0 01-.419-1.01zm.782 4.822h7.812a.782.782 0 010 1.562H7.812a.783.783 0 01-.78-.781c0-.43.35-.782.78-.782zm-5.47 14.053c0-2.32.855-4.547 2.408-6.271l4.19-4.657h5.554l4.192 4.657a9.364 9.364 0 012.407 6.28c0 5.17-4.206 9.375-9.375 9.375-5.17 0-9.375-4.206-9.375-9.384zm45.313 12.509c0 .431-.35.781-.781.781H18.75a.782.782 0 01-.781-.781v-3.538a11.011 11.011 0 001.562-1.323v.955H30.47v-1.563H20.084a10.919 10.919 0 002.312-4.687h25.26v10.156zm-25.035-13.28h25.035v1.562h-25.04c.02-.261.04-.523.04-.79 0-.259-.017-.516-.035-.772zm-.226-1.563a10.91 10.91 0 00-1.208-3.125h25.688c.43 0 .781.35.781.782v2.343H22.395z" fill="#333"/><path d="M39.844 46.094c.552 0 1.089-.154 1.565-.434.46.269.989.434 1.56.434a3.128 3.128 0 003.125-3.125 3.128 3.128 0 00-3.125-3.125c-.571 0-1.1.165-1.56.433a3.086 3.086 0 00-1.565-.433 3.128 3.128 0 00-3.125 3.125 3.128 3.128 0 003.125 3.125zm4.687-3.125a1.563 1.563 0 01-3.125 0c0-.862.701-1.563 1.563-1.563.861 0 1.562.701 1.562 1.563zm-4.687-1.563c.148 0 .28.025.402.06a3.086 3.086 0 00-.402 1.503c0 .547.154 1.055.402 1.503a1.48 1.48 0 01-.402.06c-.862 0-1.563-.701-1.563-1.563s.701-1.563 1.563-1.563zm-17.188 3.125h1.563v1.563h-1.563V44.53zm6.25 0h1.563v1.563h-1.563V44.53zm-9.375 0h1.563v1.563H19.53V44.53zm6.25 0h1.563v1.563H25.78V44.53zm16.407-18.75c3.876 0 7.03-3.154 7.03-7.031s-3.154-7.031-7.03-7.031c-3.877 0-7.032 3.154-7.032 7.031s3.155 7.031 7.032 7.031zm0-12.5a5.475 5.475 0 015.468 5.469 5.475 5.475 0 01-5.468 5.469 5.475 5.475 0 01-5.47-5.469 5.475 5.475 0 015.47-5.469zm-14.063 1.563c3.877 0 7.031-3.155 7.031-7.031 0-3.877-3.154-7.032-7.031-7.032s-7.031 3.155-7.031 7.032c0 3.876 3.154 7.03 7.031 7.03zm0-12.5a5.475 5.475 0 015.469 5.469 5.475 5.475 0 01-5.469 5.468 5.475 5.475 0 01-5.469-5.469 5.475 5.475 0 015.469-5.468z" fill="#333"/><path d="M40.396 21.646l1.791-1.791 1.792 1.791 1.105-1.105-1.792-1.791 1.792-1.791-1.105-1.105-1.791 1.791-1.792-1.791-1.105 1.105 1.792 1.791-1.792 1.791 1.105 1.105zM31.802 6.021l-1.104-1.105-4.136 4.136-1.01-1.01-1.104 1.104 2.114 2.115 5.24-5.24zm-2.896 10.385h-1.562v3.125H19.53v1.563h9.375v-4.688zm-9.375 6.25h14.844v1.563H19.531v-1.563z" fill="#333"/></svg>
